NeoWeb/wwwroot/images/ecoboost/TProject3.svg

<svg viewBox="0 0 86 86" xmlns="http://www.w3.org/2000/svg"><path d="m64.51 66.69-20.27-11.63a2 2 0 0 0 -2 0l-20.24 11.63a1 1 0 0 0 0 1.74l20.25 11.63a2 2 0 0 0 2 0l20.26-11.63a1 1 0 0 0 0-1.74z" fill="#02e49b"/><path d="m42.11 17.78-20.35 11.74a2 2 0 0 0 -1 1.73v23.5a2 2 0 0 0 1 1.73l20.35 11.74a2 2 0 0 0 2 0l20.34-11.74a2 2 0 0 0 1-1.73v-23.5a2 2 0 0 0 -1-1.73l-20.34-11.74a2 2 0 0 0 -2 0z" fill="#2b393f"/></svg>

<svg id="Layer_1" data-name="Layer 1" xmlns="http://www.w3.org/2000/svg" viewBox="0 0 86 86"><defs><style>.cls-1{fill:#02e49b;}.cls-2{fill:#2b393f;}</style></defs><title>Artboard 76</title><path class="cls-1" d="M64.51,66.69,44.24,55.06a2,2,0,0,0-2,0L22,66.69a1,1,0,0,0,0,1.74L42.25,80.06a2,2,0,0,0,2,0L64.51,68.43A1,1,0,0,0,64.51,66.69Z"/><path class="cls-2" d="M42.11,17.78,21.76,29.52a2,2,0,0,0-1,1.73v23.5a2,2,0,0,0,1,1.73L42.11,68.22a2,2,0,0,0,2,0L64.45,56.48a2,2,0,0,0,1-1.73V31.25a2,2,0,0,0-1-1.73L44.11,17.78A2,2,0,0,0,42.11,17.78Z"/></svg>
